icons/2_Variations/Sony bg.var.svg

<svg width="1024" height="1024" viewBox="0 0 1024 1024" fill="none" xmlns="http://www.w3.org/2000/svg">
<g clip-path="url(#clip0_3_254)">
<path d="M512 1024C794.77 1024 1024 794.77 1024 512C1024 229.23 794.77 0 512 0C229.23 0 0 229.23 0 512C0 794.77 229.23 1024 512 1024Z" fill="#728DBE"/>
<path d="M482.87 473.501C467.07 459.141 446.41 452.631 420.6 452.631C397.27 452.631 372.49 460.631 358.46 473.471C353.121 478.345 348.86 484.282 345.949 490.9C343.039 497.518 341.544 504.671 341.56 511.901C341.477 519.16 342.942 526.353 345.856 533.002C348.77 539.651 353.067 545.602 358.46 550.461C373.57 564.051 396.21 571.381 420.6 571.381C444.99 571.381 468.17 564.141 482.87 550.461C488.106 545.49 492.282 539.511 495.147 532.885C498.012 526.258 499.506 519.12 499.54 511.901C499.616 504.688 498.17 497.541 495.298 490.924C492.426 484.308 488.191 478.371 482.87 473.501ZM453.93 542.881C445.54 551.241 433.54 555.721 420.59 555.721C407.74 555.721 395.49 551.141 387.2 542.881C379.27 534.981 375.02 523.781 375.02 511.881C375.02 499.981 379.22 488.761 387.2 480.881C395.48 472.671 407.78 468.121 420.59 468.121C433.4 468.121 445.65 472.711 453.93 480.881C461.93 488.801 466.14 499.971 466.14 511.881C466.15 524.371 462.27 534.571 453.94 542.881H453.93ZM242.35 452.681C229.35 452.681 214.48 455.121 201.89 460.761C190.27 465.961 180.75 474.361 180.75 488.291C180.715 495.609 183.484 502.663 188.49 508.001C191.88 511.121 197.32 516.441 211.57 519.561C217.94 520.961 231.57 523.101 245.11 524.561C258.65 526.021 271.81 527.331 277.2 528.701C281.49 529.791 288.68 531.281 288.68 539.371C288.68 547.461 281.1 549.891 279.78 550.421C278.46 550.951 269.36 555.121 253.01 555.121C240.93 555.121 226.42 551.481 221.13 549.591C215.03 547.411 208.63 544.541 202.66 537.231C200.255 533.788 198.922 529.71 198.83 525.511H184V567.001H200.45V561.391C200.453 560.976 200.565 560.569 200.776 560.212C200.986 559.855 201.288 559.56 201.649 559.357C202.011 559.153 202.42 559.05 202.834 559.056C203.249 559.062 203.655 559.177 204.01 559.391C211.761 562.766 219.822 565.375 228.08 567.181C236.73 568.991 242.3 570.291 253.08 570.291C270.62 570.291 280.08 567.431 286.56 565.561C293.754 563.578 300.502 560.238 306.44 555.721C309.785 553.147 312.488 549.832 314.336 546.038C316.184 542.243 317.127 538.071 317.09 533.851C317.148 525.83 314.057 518.106 308.48 512.341C305.372 509.325 301.766 506.868 297.82 505.081C293.601 503.17 289.221 501.637 284.73 500.501C276.25 498.411 257.07 495.841 247.9 494.881C238.28 493.881 221.6 492.491 214.9 490.421C212.9 489.791 208.76 487.831 208.76 483.041C208.76 479.631 210.64 476.751 214.37 474.411C220.28 470.701 232.21 468.411 244.65 468.411C259.36 468.361 271.81 471.721 279.73 475.271C282.714 476.578 285.52 478.258 288.08 480.271C292.267 483.821 295.179 488.642 296.37 494.001H309.66V457.871H294.82V462.071C294.82 463.431 293.42 465.191 290.82 463.731C284.18 460.241 265.4 452.731 242.39 452.681M567.57 459.251L639.95 524.701L639.21 480.641C639.14 474.861 638.07 472.451 631.84 472.451H618.18V459.271H680.07V472.451H666.8C660.44 472.451 660.04 474.451 659.96 480.641L661.08 564.831H639.88L556.51 490.281V543.191C556.58 548.941 556.85 551.651 562.77 551.651H577.63V564.831H516.87V551.651H531.08C536.39 551.651 536.18 546.581 536.18 542.891V481.141C536.18 477.141 535.62 472.461 527.29 472.461H515.75V459.261L567.57 459.251ZM750.8 551.631C752.024 551.633 753.247 551.556 754.46 551.401C755.09 551.211 755.672 550.886 756.164 550.449C756.656 550.013 757.047 549.474 757.31 548.871C757.496 547.932 757.59 546.978 757.59 546.021V525.181C757.59 524.681 757.59 524.461 756.7 523.351C755.81 522.241 718.79 480.141 717.09 478.301C714.99 476.001 711.3 472.461 705.69 472.461H692.85V459.261H765.43V472.431H756.68C754.68 472.431 753.31 474.351 755.04 476.491C755.04 476.491 779.46 505.751 779.69 506.061C779.92 506.371 780.11 506.451 780.42 506.161C780.73 505.871 805.42 476.761 805.65 476.531C805.946 476.145 806.124 475.682 806.165 475.198C806.205 474.714 806.106 474.228 805.878 473.798C805.651 473.369 805.305 473.014 804.882 472.775C804.459 472.536 803.976 472.423 803.49 472.451H794.49V459.261H854V472.451H840.71C835.89 472.451 833.93 473.341 830.3 477.451C828.64 479.331 791.3 522.071 790.25 523.231C789.84 523.811 789.665 524.526 789.76 525.231V546.001C789.761 546.958 789.854 547.912 790.04 548.851C790.303 549.454 790.694 549.993 791.186 550.43C791.679 550.867 792.26 551.191 792.89 551.381C794.094 551.537 795.307 551.614 796.52 551.611H810.11V564.801H737.91V551.611H750.8V551.631Z" fill="white"/>
</g>
<defs>
<clipPath id="clip0_3_254">
<rect width="1024" height="1024" fill="white"/>
</clipPath>
</defs>
</svg>

<svg xmlns="http://www.w3.org/2000/svg" viewBox="0 0 1024 1024">
   <circle cx="512" cy="512" r="512" style="fill:#2d61bf"/>
   <path d="M482.87 473.5c-15.8-14.36-36.46-20.87-62.27-20.87-23.33 0-48.11 8-62.14 20.84a51.88 51.88 0 0 0-16.9 38.43 51.11 51.11 0 0 0 16.9 38.56c15.11 13.59 37.75 20.92 62.14 20.92s47.57-7.24 62.27-20.92a53.52 53.52 0 0 0 16.67-38.56 51.33 51.33 0 0 0-16.67-38.4Zm-28.94 69.38c-8.39 8.36-20.39 12.84-33.34 12.84-12.85 0-25.1-4.58-33.39-12.84-7.93-7.9-12.18-19.1-12.18-31s4.2-23.12 12.18-31c8.28-8.21 20.58-12.76 33.39-12.76s25.06 4.59 33.34 12.76c8 7.92 12.21 19.09 12.21 31 .01 12.49-3.87 22.69-12.2 31Zm-211.58-90.2c-13 0-27.87 2.44-40.46 8.08-11.62 5.2-21.14 13.6-21.14 27.53a28.61 28.61 0 0 0 7.74 19.71c3.39 3.12 8.83 8.44 23.08 11.56 6.37 1.4 20 3.54 33.54 5s26.7 2.77 32.09 4.14c4.29 1.09 11.48 2.58 11.48 10.67s-7.58 10.52-8.9 11.05-10.42 4.7-26.77 4.7c-12.08 0-26.59-3.64-31.88-5.53-6.1-2.18-12.5-5.05-18.47-12.36a21.27 21.27 0 0 1-3.83-11.72H184V567h16.45v-5.61a2.35 2.35 0 0 1 3.56-2 129.65 129.65 0 0 0 24.07 7.79c8.65 1.81 14.22 3.11 25 3.11 17.54 0 27-2.86 33.48-4.73a58.52 58.52 0 0 0 19.88-9.84 27.3 27.3 0 0 0 10.65-21.87 30.62 30.62 0 0 0-8.61-21.51 37.58 37.58 0 0 0-10.66-7.26 78.22 78.22 0 0 0-13.09-4.58c-8.48-2.09-27.66-4.66-36.83-5.62-9.62-1-26.3-2.39-33-4.46-2-.63-6.14-2.59-6.14-7.38 0-3.41 1.88-6.29 5.61-8.63 5.91-3.71 17.84-6 30.28-6 14.71-.05 27.16 3.31 35.08 6.86a38.53 38.53 0 0 1 8.35 5 25.16 25.16 0 0 1 8.29 13.73h13.29v-36.13h-14.84v4.2c0 1.36-1.4 3.12-4 1.66-6.64-3.49-25.42-11-48.43-11.05m325.18 6.57 72.38 65.45-.74-44.06c-.07-5.78-1.14-8.19-7.37-8.19h-13.66v-13.18h61.89v13.18H666.8c-6.36 0-6.76 2-6.84 8.19l1.12 84.19h-21.2l-83.37-74.55v52.91c.07 5.75.34 8.46 6.26 8.46h14.86v13.18h-60.76v-13.18h14.21c5.31 0 5.1-5.07 5.1-8.76v-61.75c0-4-.56-8.68-8.89-8.68h-11.54v-13.2Zm183.23 92.38a28.49 28.49 0 0 0 3.66-.23 4.54 4.54 0 0 0 2.85-2.53 14.72 14.72 0 0 0 .28-2.85v-20.84c0-.5 0-.72-.89-1.83s-37.91-43.21-39.61-45.05c-2.1-2.3-5.79-5.84-11.4-5.84h-12.84v-13.2h72.58v13.17h-8.75c-2 0-3.37 1.92-1.64 4.06 0 0 24.42 29.26 24.65 29.57s.42.39.73.1 25-29.4 25.23-29.63a2.54 2.54 0 0 0-2.16-4.08h-9v-13.19H854v13.19h-13.29c-4.82 0-6.78.89-10.41 5-1.66 1.88-39 44.62-40.05 45.78a2.81 2.81 0 0 0-.49 2V546a14.69 14.69 0 0 0 .28 2.85 4.53 4.53 0 0 0 2.85 2.53 27.69 27.69 0 0 0 3.63.23h13.59v13.19h-72.2v-13.19h12.89Z" style="fill:#fff"/>
</svg>
